X: 459
T: Carroll County Blues
C:Mike Compton from Mandolin Symposium 2006 or so
B: jims roots
M:4/4
L:1/8
Q: 1/4=100
K:G
V:1 
%Q:240
xA^A  |  "G"B2g2 =fedc  |  ^ABge =fedc  |  ^ABg2 =fedB  |  "G7"d8  |  d^c=c2 ^ABG2  |
"C"EGc2 ^A=AG2  |  EGcA ^A=AG2  |  EG c^A BG AB  |  "G"GB,DG Bc^cd  |  (g4 g) g(^A ||
B2)g2 =fe dc  |  ^AB ge =fe dc  |  ^AB g{=f}f dc AB  |  "G7"(3[GB][GB][GB] (3[GB][Bd][Bd] (3[Bd][Bd][Bd] [B2=f]  |
d 2c2 ^AB GD  |  "C"E2 cA ^A=A GD  |  E2cA ^A=A G2  |  ^AB gA Bg AB  |  G4 gd cB  |  [G,6G] G,A, ||
"G"[B,2D] [^A,2D] [B,2D] [A,2D]  |  [B,2D] [^A,D]([B,D] [B,D])[B,D] zA,2  |  [B,2D] [^A,2D] [B,2D] [A,2D]  |  [B,2D] [^A,D]([B,D] [B,2D]) zC2  | [D2B] [^C2^A] [D2B] [C2A]  |
"G"zggg gggg  |  gggg gggg  |  gdc^A BGAB  |
G2G2 (3D^C=C ^A,B,  |  G2 G,2 G2(3DD^D  |  "C"E2[c2E] ^AG D^D  |  Ec3 c2 g2  |  =f2 d2 cA ^AB  |
"G"G2 (3D^C=C (3^A,B,G g^a  |  g=f dc ^AB AB GB,  |  DG Bc ^cd z2  |
g2 =fd c^A ^a2  |  g=f d^c =cA ^AB(G2  |  (G8)  |  G8 ) ||
V:D2B 
V:[^C^A 
([DB] [D2B]) z[Ac]  |  [B2d] [^A2^c] [B2d] [A2c]  |  [B2d] [^A^c]([Bd] [B2d]) z2  |  {E}=F2 (4EFED G,4  |  (3=FED G,6 ||
% abcbook-tune_id 6298c245bb2c4a5f5e8b638e


% abcbook-boost 0
% abcbook-tablature 
% abcbook-transpose 
% abcbook-lastupdated 1654178373650
% abcbook-soundfonts 
% abcbook-repeats 1


